actions/16/stroke-to-path.svg

<svg xmlns="http://www.w3.org/2000/svg" width="16" height="16">
    <defs>
        <style id="current-color-scheme" type="text/css">
            .ColorScheme-Text{color:#dfdfdf}
        </style>
    </defs>
    <path style="fill:currentColor" class="ColorScheme-Text" d="M11 6c-5 0-5 5-5 5v5h1v-5s0-4 4-4h5V6Zm-1-4c-8 0-8 8-8 8v6h1v-6s0-7 7-7h6V2Z"/>
    <path style="fill:currentColor" class="ColorScheme-Text" d="M1 11h3v3H1Zm4 0h3v3H5Zm6-6h3v3h-3Zm0-4h3v3h-3Z"/>
</svg>

<svg xmlns="http://www.w3.org/2000/svg" width="16" height="16">
 <defs>
  <style id="current-color-scheme" type="text/css">
   .ColorScheme-Text { color:#dfdfdf; } .ColorScheme-Highlight { color:#4285f4; } .ColorScheme-NeutralText { color:#ff9800; } .ColorScheme-PositiveText { color:#4caf50; } .ColorScheme-NegativeText { color:#f44336; }
  </style>
 </defs>
 <path style="fill:currentColor" class="ColorScheme-Text" d="M 11,6 C 6,6 6,11 6,11 V 16 H 7 V 11 C 7,11 7,7 11,7 H 16 V 6 Z M 10,2 C 2,2 2,10 2,10 V 16 H 3 V 10 C 3,10 3,3 10,3 H 16 V 2 Z"/>
 <path style="fill:currentColor" class="ColorScheme-Text" d="M 1,11 H 4 V 14 H 1 Z M 5,11 H 8 V 14 H 5 Z M 11,5 H 14 V 8 H 11 Z M 11,1 H 14 V 4 H 11 Z"/>
</svg>
